icon-themes/breeze_svg/cmd/lc_insertcolumns.svg

<svg viewBox="0 0 24 24" xmlns="http://www.w3.org/2000/svg"><path d="m10 4v1h4v2h-4v1h4v2h-4v1h4v2h-4v1h4 1 4 1v-1-8-1h-5-1zm5 1h4v2h-4zm0 3h4v2h-4zm0 3h4v2h-4zm2 4v2h-2v1h2v2h1v-2h2v-1h-2v-2zm-7 1v1h4v-1zm0 3v1h4v-1z" fill="#4d4d4d"/><path d="m4 4v1 3 1.28125 2.71875 4 1.28125 1.71875 1h1 .28125 1.4375 2.28125 1v-1-3-4-4-3-1h-1-4zm1 1h3.28125l-3.28125 3.28125v-.28125zm4 .71875v2.28125.28125l-3.71875 3.71875-.28125.28125v-.28125-2.28125zm0 4v2.28125.28125l-3.71875 3.71875-.28125.28125v-.28125-2.28125l1.71875-1.71875zm0 4v2.28125.28125l-2.71875 2.71875h-1.28125v-1.28125l1.71875-1.71875zm0 4v1.28125h-1.28125z" fill="#1d99f3"/></svg>

<svg xmlns="http://www.w3.org/2000/svg" viewBox="0 0 24 24">
 <path 
     style="fill:#4d4d4d" 
     d="M 10 4 L 10 5 L 14 5 L 14 7 L 10 7 L 10 8 L 14 8 L 14 10 L 10 10 L 10 11 L 14 11 L 14 13 L 10 13 L 10 14 L 14 14 L 15 14 L 19 14 L 20 14 L 20 13 L 20 5 L 20 4 L 15 4 L 14 4 L 10 4 z M 15 5 L 19 5 L 19 7 L 15 7 L 15 5 z M 15 8 L 19 8 L 19 10 L 15 10 L 15 8 z M 15 11 L 19 11 L 19 13 L 15 13 L 15 11 z M 17 15 L 17 17 L 15 17 L 15 18 L 17 18 L 17 20 L 18 20 L 18 18 L 20 18 L 20 17 L 18 17 L 18 15 L 17 15 z M 10 16 L 10 17 L 14 17 L 14 16 L 10 16 z M 10 19 L 10 20 L 14 20 L 14 19 L 10 19 z "
     />
 <path 
     style="fill:#1d99f3" 
     d="M 4 4 L 4 5 L 4 8 L 4 9.28125 L 4 12 L 4 16 L 4 17.28125 L 4 19 L 4 20 L 5 20 L 5.28125 20 L 6.71875 20 L 9 20 L 10 20 L 10 19 L 10 16 L 10 12 L 10 8 L 10 5 L 10 4 L 9 4 L 5 4 L 4 4 z M 5 5 L 8.28125 5 L 5 8.28125 L 5 8 L 5 5 z M 9 5.71875 L 9 8 L 9 8.28125 L 5.28125 12 L 5 12.28125 L 5 12 L 5 9.71875 L 9 5.71875 z M 9 9.71875 L 9 12 L 9 12.28125 L 5.28125 16 L 5 16.28125 L 5 16 L 5 13.71875 L 6.71875 12 L 9 9.71875 z M 9 13.71875 L 9 16 L 9 16.28125 L 6.28125 19 L 5 19 L 5 17.71875 L 6.71875 16 L 9 13.71875 z M 9 17.71875 L 9 19 L 7.71875 19 L 9 17.71875 z "
     />
 </svg>
